X: 10997
T: Drunken Parson, The
R: jig
M: 6/8
K: Gmajor
GBB Acc|GBB c2e|GBB cAd|BGG G3:|
|:GBd g2a|ecc c3|fga aba|fdd d3|
GBd gag|ece f2e|BGG cAA|BGG G3:|

